X:324
T: Die schnste Grtnerin (65a), S. 197
N: T0213
O: Luxemburg
S: Singendes Volk, Esch-Alzette 1937 posth.]
N: Burglinster, fff Michel Lemmer, 7.1.1914
R: Liebeslieder]
M: 4/4
L: 1/16
K: G
D2 | G3AB2G2D4DEF2 | A2GEE4D4z2
D2 | D2c2c2BAG2B2B4 | A4A4G4
B4 | G2A2B2cAB4z2D2 | G2B2d2BAG4D4 |
D2c2c2BAG2B2B4 | A4A4G4z2

@@@ Tune index: 8378
